symbols/web/home_max/materialsymbolsrounded/home_max_wght500gradN25_48px.svg

<svg xmlns="http://www.w3.org/2000/svg" height="48" width="48"><path d="M15.55 38.35q-.75 0-1.2-.475-.45-.475-.45-1.175v-.6H9.4q-3.15 0-5.3-2.15t-2.15-5.3V17.6q0-3.2 2.15-5.45T9.4 9.9h29.25q3.15 0 5.275 2.25 2.125 2.25 2.125 5.45v11.05q0 3.1-2.175 5.275Q41.7 36.1 38.65 36.1H34.1v.6q0 .7-.45 1.175-.45.475-1.2.475ZM5.25 13.2V32.8 13.2ZM9.4 32.8h29.25q1.7 0 2.9-1.2t1.2-2.9V17.6q0-1.8-1.175-3.1t-2.925-1.3H9.4q-1.75 0-2.95 1.3-1.2 1.3-1.2 3.05V28.7q0 1.7 1.2 2.9t2.95 1.2Z"/></svg>

<svg xmlns="http://www.w3.org/2000/svg" height="48" width="48"><path d="M15.55 38.35Q14.8 38.35 14.35 37.875Q13.9 37.4 13.9 36.7V36.1H9.4Q6.25 36.1 4.1 33.95Q1.95 31.8 1.95 28.65V17.6Q1.95 14.4 4.1 12.15Q6.25 9.9 9.4 9.9H38.65Q41.8 9.9 43.925 12.15Q46.05 14.4 46.05 17.6V28.65Q46.05 31.75 43.875 33.925Q41.7 36.1 38.65 36.1H34.1V36.7Q34.1 37.4 33.65 37.875Q33.2 38.35 32.45 38.35ZM5.25 13.2Q5.25 13.2 5.25 14.5Q5.25 15.8 5.25 17.6V28.7Q5.25 30.4 5.25 31.6Q5.25 32.8 5.25 32.8Q5.25 32.8 5.25 31.6Q5.25 30.4 5.25 28.7V17.6Q5.25 15.8 5.25 14.5Q5.25 13.2 5.25 13.2ZM9.4 32.8H38.65Q40.35 32.8 41.55 31.6Q42.75 30.4 42.75 28.7V17.6Q42.75 15.8 41.575 14.5Q40.4 13.2 38.65 13.2H9.4Q7.65 13.2 6.45 14.5Q5.25 15.8 5.25 17.55V28.7Q5.25 30.4 6.45 31.6Q7.65 32.8 9.4 32.8Z"/></svg>
